styles/3/Numix/22/places/orange-folder-system.svg

<?xml version="1.0" encoding="UTF-8" standalone="no"?>
<!-- Created with Inkscape (http://www.inkscape.org/) -->

<svg
   xmlns:dc="http://purl.org/dc/elements/1.1/"
   xmlns:cc="http://creativecommons.org/ns#"
   xmlns:rdf="http://www.w3.org/1999/02/22-rdf-syntax-ns#"
   xmlns:svg="http://www.w3.org/2000/svg"
   xmlns="http://www.w3.org/2000/svg"
   xmlns:sodipodi="http://sodipodi.sourceforge.net/DTD/sodipodi-0.dtd"
   xmlns:inkscape="http://www.inkscape.org/namespaces/inkscape"
   width="22"
   height="22"
   id="svg2"
   version="1.1"
   inkscape:version="0.91 r"
   sodipodi:docname="orange-folder-system.svg"
   inkscape:export-filename="/media/Data/Main/Visuals/Icons/Numix/Desktop/repos/numix-wiki/Gjorgi/Numix-folders/48/New/folder-144.png"
   inkscape:export-xdpi="270"
   inkscape:export-ydpi="270">
  <defs
     id="defs4" />
  <sodipodi:namedview
     id="base"
     pagecolor="#ffffff"
     bordercolor="#666666"
     borderopacity="1.0"
     inkscape:pageopacity="0.0"
     inkscape:pageshadow="2"
     inkscape:zoom="18.38075"
     inkscape:cx="5.8547509"
     inkscape:cy="14.103587"
     inkscape:document-units="px"
     inkscape:current-layer="layer1"
     showgrid="true"
     inkscape:window-width="1280"
     inkscape:window-height="998"
     inkscape:window-x="0"
     inkscape:window-y="0"
     inkscape:window-maximized="1"
     showguides="true"
     inkscape:guide-bbox="true">
    <inkscape:grid
       type="xygrid"
       id="grid2985"
       empspacing="5"
       visible="true"
       enabled="true"
       snapvisiblegridlinesonly="true" />
  </sodipodi:namedview>
  <metadata
     id="metadata7">
    <rdf:RDF>
      <cc:Work
         rdf:about="">
        <dc:format>image/svg+xml</dc:format>
        <dc:type
           rdf:resource="http://purl.org/dc/dcmitype/StillImage" />
        <dc:title />
      </cc:Work>
    </rdf:RDF>
  </metadata>
  <g
     inkscape:label="Layer 1"
     inkscape:groupmode="layer"
     id="layer1"
     transform="translate(0,-1030.3622)">
    <rect
       style="fill:#e65100;fill-opacity:1;stroke:none"
       id="rect3757"
       width="20"
       height="5"
       x="0.99999928"
       y="1033.3622" />
    <path
       style="fill:#e65100;fill-opacity:1;stroke:none"
       d="m 3.9999992,1034.3622 c 0,-1 0,-2 0.909091,-2 l 3.181819,0 c 0.90909,0 0.90909,1 0.90909,2 z"
       id="path3759"
       inkscape:connector-curvature="0"
       sodipodi:nodetypes="ccccc" />
    <path
       style="fill:#95989f;fill-opacity:1;stroke:none"
       d="m 2,1034.3622 17.999998,0 0,4 -17.999998,0 z"
       id="path3765"
       inkscape:connector-curvature="0" />
    <rect
       y="1034.3622"
       x="4.999999"
       height="6"
       width="14"
       id="rect3763"
       style="fill:#d8d8da;fill-opacity:1;stroke:none" />
    <rect
       style="fill:#f9f9f9;fill-opacity:1;stroke:none"
       id="rect3761"
       width="14"
       height="3.0000174"
       x="3"
       y="1035.3622" />
    <path
       style="fill:#f57c00;fill-opacity:1;stroke:none"
       d="m 0,1036.3622 21.999999,0 -1,14 -19.9999994,0 z"
       id="path2987"
       inkscape:connector-curvature="0"
       sodipodi:nodetypes="ccccc" />
    <path
       style="line-height:normal;opacity:1.0;color:#000000;fill:#ab5d0b;fill-opacity:1;display:block"
       d="M 10.21875 8 C 9.9414395 8 9.71875 8.2225 9.71875 8.5 L 9.71875 9.15625 C 9.5434192 9.21525 9.3512958 9.26275 9.1875 9.34375 L 8.75 8.90625 C 8.5539108 8.71025 8.227325 8.71025 8.03125 8.90625 L 6.90625 10.03125 C 6.7101612 10.22745 6.7101612 10.52275 6.90625 10.71875 L 7.34375 11.1875 C 7.260658 11.3542 7.2162 11.54015 7.15625 11.71875 L 6.5 11.71875 C 6.2226875 11.71875 6 11.9103 6 12.1875 L 6 13.8125 C 6 14.0897 6.2226875 14.28125 6.5 14.28125 L 7.15625 14.28125 C 7.216192 14.45985 7.260665 14.6458 7.34375 14.8125 L 6.90625 15.28125 C 6.7101612 15.47745 6.7101612 15.77255 6.90625 15.96875 L 8.03125 17.09375 C 8.22734 17.28985 8.5539258 17.28985 8.75 17.09375 L 9.1875 16.65625 C 9.3512958 16.73825 9.5434192 16.78485 9.71875 16.84375 L 9.71875 17.5 C 9.71875 17.7774 9.9414437 18 10.21875 18 L 11.8125 18 C 12.08981 18 12.28125 17.7774 12.28125 17.5 L 12.28125 16.84375 C 12.459886 16.78375 12.645878 16.73925 12.8125 16.65625 L 13.28125 17.09375 C 13.477339 17.28985 13.772678 17.28985 13.96875 17.09375 L 15.09375 15.96875 C 15.289839 15.77255 15.289834 15.47725 15.09375 15.28125 L 14.65625 14.8125 C 14.73739 14.6486 14.784905 14.45675 14.84375 14.28125 L 15.5 14.28125 C 15.77731 14.28125 16 14.0897 16 13.8125 L 16 12.1875 C 16.000001 11.9103 15.777325 11.71875 15.5 11.71875 L 14.84375 11.71875 C 14.78491 11.54335 14.737394 11.3515 14.65625 11.1875 L 15.09375 10.71875 C 15.289839 10.52265 15.289839 10.22745 15.09375 10.03125 L 13.96875 8.90625 C 13.772661 8.71025 13.477324 8.71025 13.28125 8.90625 L 12.8125 9.34375 C 12.645861 9.26075 12.459867 9.21625 12.28125 9.15625 L 12.28125 8.5 C 12.28125 8.2225 12.089826 8 11.8125 8 L 10.21875 8 z M 11 11 C 12.104569 11 13 11.895431 13 13 C 13 14.104569 12.104569 15 11 15 C 9.8954305 15 9 14.104569 9 13 C 9 11.895431 9.8954305 11 11 11 z "
       transform="translate(0,1030.3622)"
       id="path3002-6" />
  </g>
</svg>

<!-- Created with Inkscape (http://www.inkscape.org/) -->
<svg xmlns="http://www.w3.org/2000/svg" viewBox="0 0 22 22">
 <g transform="translate(0,-1030.3622)">
  <rect width="20" height="5" x="1" y="1033.36" style="fill:#e65100;fill-opacity:1;stroke:none"/>
  <path d="m 4 1034.36 c 0 -1 0 -2 0.909 -2 l 3.182 0 c 0.909 0 0.909 1 0.909 2 z" style="fill:#e65100;fill-opacity:1;stroke:none"/>
  <path d="m 2 1034.36 18 0 0 4 -18 0 z" style="fill:#95989f;fill-opacity:1;stroke:none"/>
  <rect y="1034.36" x="5" height="6" width="14" style="fill:#d8d8da;fill-opacity:1;stroke:none"/>
  <rect width="14" height="3" x="3" y="1035.36" style="fill:#f9f9f9;fill-opacity:1;stroke:none"/>
  <path d="m 0 1036.36 22 0 -1 14 -20 0 z" style="fill:#f57c00;fill-opacity:1;stroke:none"/>
  <path d="m 10.219 8 c -0.277 0 -0.5 0.223 -0.5 0.5 l 0 0.656 c -0.175 0.059 -0.367 0.107 -0.531 0.188 l -0.438 -0.438 c -0.196 -0.196 -0.523 -0.196 -0.719 0 l -1.125 1.125 c -0.196 0.196 -0.196 0.492 0 0.688 l 0.438 0.469 c -0.083 0.167 -0.128 0.353 -0.188 0.531 l -0.656 0 c -0.277 0 -0.5 0.192 -0.5 0.469 l 0 1.625 c 0 0.277 0.223 0.469 0.5 0.469 l 0.656 0 c 0.06 0.179 0.104 0.365 0.188 0.531 l -0.438 0.469 c -0.196 0.196 -0.196 0.491 0 0.688 l 1.125 1.125 c 0.196 0.196 0.523 0.196 0.719 0 l 0.438 -0.438 c 0.164 0.082 0.356 0.129 0.531 0.188 l 0 0.656 c 0 0.277 0.223 0.5 0.5 0.5 l 1.594 0 c 0.277 0 0.469 -0.223 0.469 -0.5 l 0 -0.656 c 0.179 -0.06 0.365 -0.105 0.531 -0.188 l 0.469 0.438 c 0.196 0.196 0.491 0.196 0.688 0 l 1.125 -1.125 c 0.196 -0.196 0.196 -0.492 0 -0.688 l -0.438 -0.469 c 0.081 -0.164 0.129 -0.356 0.188 -0.531 l 0.656 0 c 0.277 0 0.5 -0.192 0.5 -0.469 l 0 -1.625 c 0 -0.277 -0.223 -0.469 -0.5 -0.469 l -0.656 0 c -0.059 -0.175 -0.106 -0.367 -0.188 -0.531 l 0.438 -0.469 c 0.196 -0.196 0.196 -0.491 0 -0.688 l -1.125 -1.125 c -0.196 -0.196 -0.491 -0.196 -0.688 0 l -0.469 0.438 c -0.167 -0.083 -0.353 -0.127 -0.531 -0.188 l 0 -0.656 c 0 -0.277 -0.191 -0.5 -0.469 -0.5 l -1.594 0 z m 0.781 3 c 1.105 0 2 0.895 2 2 c 0 1.105 -0.895 2 -2 2 c -1.105 0 -2 -0.895 -2 -2 c 0 -1.105 0.895 -2 2 -2 z" transform="translate(0,1030.3622)" style="fill:#ab5d0b;opacity:1;fill-opacity:1;display:block;color:#000"/>
 </g>
</svg>
